X:1
T:To Zanarkand
T:To Zanarkand
T:Composer: Nobuo Uematsu 
T:Transcribed By: Steven N. Malone
T:Performed By: Marioverehrer
C:どっちかにしようや
%%score { ( 1 3 ) | ( 2 4 ) }
L:1/8
Q:1/4=90
M:3/4
K:G
V:1 treble nm="Piano" snm="Pno."
V:3 treble 
V:2 treble 
V:4 treble 
V:1
 e'e gb[Q:1/4=86]"_rit." e'[Q:1/4=78][d'f'] |[Q:1/4=68] [e'g']6 | %2
[Q:1/4=90][Q:1/4=90]"_a tempo" d'd fa[Q:1/4=86]"_rit." d'[Q:1/4=78][ae'] |[Q:1/4=68] [d'f']6 | %4
[Q:1/4=74]"_accel." b2[Q:1/4=88] b2 b2[Q:1/4=80][Q:1/4=90] |"_a tempo" b2 !fermata!a3 d' | f4 df | %7
 b6 | e'2 e'2 e'2 | e'2 d'3 g' | c'6 | =fc fg[Q:1/4=95] ac' |[Q:1/4=100] [Ge]3 B ef | %13
 [Bg]2 [Af]2 e2 | [Fd]3 [Ge] [Ad]2 | B6 | [Ge]3 B ef | [eg]2 [df]2 [eg]2 | [fa]3 [eg] [fa]2 | %19
 [gb]6 | [Ge]3 B ef | [Bg]2 [Af]2 e2 | [Fd]3 [Ge] [Ad]2 | B4[Q:1/4=95]"_rit." [Gg][Aa] | %24
[Q:1/4=80] !arpeggio![de]6[Q:1/4=78] | !arpeggio![ef]6 |[Q:1/4=85]"_accel." [cg]3 g [df]d | %27
[Q:1/4=90] [Ge]6 |[Q:1/4=95] EG ce[Q:1/4=100]"_a tempo" G/c/e/g/ | !>![Aca]4 !>![ec'e']2 | %30
 !>![ec'e']2 !>![dbd']2 !>![cac']2 | !>![Bgb]4[Q:1/4=98] !>![gg']2 | %32
[Q:1/4=95]"_rit." !>![gg']6[Q:1/4=75] | !arpeggio![dfb]4 f'2 | !arpeggio![a^c'f']6 | %35
 [ca]4[Q:1/4=88] [ae']2 |"_accel." [ae']2 ^d'4 |[Q:1/4=95] [DFB]4 [FBf]2 | [GBf]2 [GBe]2 [FBd]2 | %39
 [EA^c]4 [Aea]2 |[Q:1/4=85]"_rit." [A^cfa]6 |[Q:1/4=80] !arpeggio![^G^c^g]2 e2 c2 | [GB]4 f2 | %43
 A3 F [EA]2 |[Q:1/4=70]"_accel." z6[Q:1/4=75][Q:1/4=80] |[Q:1/4=85] ^DF B^d f[Q:1/4=75]!fermata!b | %46
 !fermata![Ge]3 B ef | !fermata![Bg]2 f2 e2 | !fermata![Fd]3 e d2 | !fermata![GB]6 | %50
 !fermata![Ge]3 B ef | !fermata![Bg]2 f2 g2 | !fermata![da]3 g a2 | %53
[Q:1/4=80]"_accel." b6[Q:1/4=85][Q:1/4=95] |[Q:1/4=100] [Ge]3 B ef | [Bg]2 [Af]2 e2 | %56
 [Fd]3 [Ge] [Ad]2 | B4[Q:1/4=95]"_rit." !>![Gg]!>![Aa] |[Q:1/4=80] !arpeggio!!>![de]6 | %59
[Q:1/4=78]"_accel." !arpeggio![ef]6 |[Q:1/4=85] [cg]3 g [df]d | [Ge]6[Q:1/4=90] | %62
[Q:1/4=95]"_(accel.)" EG ce[Q:1/4=100] G/c/e/g/ | %63
 !>![Aca]4 !>![ec'e']2[Q:1/4=105][Q:1/4=100][Q:1/4=95][Q:1/4=100] | %64
[Q:1/4=105] !>![ec'e']2[Q:1/4=95] !>![dbd']2 !>![cac']2[Q:1/4=100][Q:1/4=100] | %65
[Q:1/4=105] !>![Bgb]4[Q:1/4=80] !>![gg']2[Q:1/4=60][Q:1/4=100] | %66
[Q:1/4=60]"_rit." !>![gg']4[Q:1/4=60] z[Q:1/4=20] (6:4:6e/8g/8B/8e/8g/8b/8e'/4g'/4-[Q:1/4=70][Q:1/4=65] | %67
[Q:1/4=70] g'2"_accel." !fermata![dfb]2[Q:1/4=75] f'2 | [faf']6 | %69
"_(accel.)" [ca]4 [ae']2[Q:1/4=85] | [ae']2[Q:1/4=90] ^d'4 |[Q:1/4=95] !>![DFB]4 !>![FBf]2 | %72
 !>![GBf]2 !>![GBe]2 !>![Fd]2 | !>![EA^c]4 !>![Aea]2 | %74
[Q:1/4=90]"_rit." !>![A^cfa]6[Q:1/4=88][Q:1/4=85] | FA[Q:1/4=80] ^cf !fermata!a2 | %76
[Q:1/4=70] !arpeggio![^G^c^g]2 e2 c2 | [GB]4 f2 | A3 F [EA]2 |[Q:1/4=60] !>![^DFB]6[Q:1/4=75] | %80
[Q:1/4=70]"_rit." ^DF[Q:1/4=65] B^d[Q:1/4=60] f!fermata!b | !fermata!^d'6 |] %82
V:2
!ped! [EB]4 D2!ped-up! |!ped! C6!ped-up! |!ped! [DA]4 C2!ped-up! |!ped! B,6!ped-up! | %4
!ped! CE dc ef | [eg]6!ped-up! |!ped! B,F B^c z2 | z6!ped-up! |!ped! A,E BA cd | [Ace]6!ped-up! | %10
!ped! =F,C =FG Ac | z6!ped-up! |[K:bass]!ped! E,B, EF GA | C,G, DE CG | D,A, DE FC | %15
 G,,D, G,A, B,D | E,B, EF GA | C,G, DE CG | D,A, DE FC | G,,D, G,A, B,D | E,B, EF GA | C,G, DE CG | %22
 D,A, DE FC | G,,D, G,A, B,D!ped-up! |!ped! !arpeggio![CB]6 | !arpeggio![Dc]6 | A,E G2 [DA]2 | %27
 !>!C,,G,, C,E, G,C | z6!ped-up! |!ped! !>!A,,E, A,B, CE | !>!=F,,C, =F,G, A,C | %31
 !>!G,,D, G,A, B,D | !>!E,,B,, E,F, G,A,!ped-up! |!ped! B,6 | F6 | A,6 | B,2 B,,2 B,,A,,!ped-up! | %37
!ped! [B,,,B,,]B,, F,B, DB, | [G,,,G,,]G,, D,G, B,G, | [A,,,A,,]A,, E,A, ^CA, | %40
 [F,,,F,,]F,, ^C,F, A,!fermata!^C!ped-up! |!ped! E6 | G,4 [B,D]2 | [F,^C]6!ped-up! | %44
!ped! !>![B,,,B,,]F,, B,,^D, F,B, | z6!ped-up! |!ped! [E,B,]6 | [C,G,E]6 | [D,A,]6 | [G,D]6 | %50
 [E,B,]6 | E2 D2 E2 | F3 E F2 | G,,D, G,A, B,D!ped-up! |!ped! E,B, EF GA | C,G, DE CG | %56
 D,A, DE FC | G,,D, G,A, !>!B,!>!D!ped-up! |!ped! !arpeggio!!>![CB]6 | !arpeggio![Dc]6 | %60
 A,E G2 [DA]2 | !>!C,,G,, C,E, G,C | z6!ped-up! | %63
!ped! A,,,/A,,/C,/E,/ A,/C/E/A/ E/C/A,/E,/!ped-up! | %64
!ped! =F,,,/=F,,/A,,/C,/ =F,/A,/C/=F/ C/A,/F,/C,/!ped-up! | %65
!ped! !fermata![G,,,G,,](6:4:6G,,/B,,/D,/ G,/B,/D/G/D/ B,/G,/D,/B,,/!ped-up! | %66
!ped! [E,,,E,,]>E,, (6:4:6G,,/B,,/E,/G,/B,/E/ G/4E/4G/4B/4 z | z2!ped-up!!ped! B,4 | ^c6 | %69
 A,3 B, CE | B,2 B,,2 B,,A,, | [B,,,B,,]B,, F,B, DB, | [G,,,G,,]G,, D,G, B,G, | %73
 [A,,,A,,]A,, E,A, ^CA, | [F,,,F,,]F,, ^C,F, A,^C | z6!ped-up! |!ped! E6 | G,4 !arpeggio![B,D]2 | %78
 [F,^C]6!ped-up! |!ped! !>![B,,,B,,]F,, B,,^D, F,B, | z6 | z6!ped-up! |] %82
V:3
 x6 | x6 | x6 | x6 | x6 | x6 | x6 | x6 | x6 | x6 | x6 | x6 | x6 | x4 G x | x6 | x6 | x6 | x6 | x6 | %19
 x6 | x6 | x4 G x | x6 | x6 | b2 b2 b2 | b2 a2 d'2 | x6 | x6 | x6 | x6 | x6 | x6 | x6 | x6 | x6 | %35
 x6 | x6 | x6 | x6 | x6 | x6 | x6 | x6 | x6 | x6 | x6 | x6 | x6 | x6 | x6 | x6 | x6 | x6 | x6 | %54
 x6 | x4 G x | x6 | x6 | !>!b2 b2 b2 | b2 a2 d'2 | x6 | x6 | x6 | x6 | x6 | x6 | x6 | x6 | x6 | %69
 x6 | x6 | x6 | x6 | x6 | x6 | x6 | x6 | x6 | x6 | x6 | x6 | x6 |] %82
V:4
 x6 | x6 | x6 | x6 | x6 | x6 | x6 | x6 | x6 | x6 | x6 | x6 |[K:bass] x6 | x6 | x6 | x6 | x6 | x6 | %18
 x6 | x6 | x6 | x6 | x6 | x6 | x6 | x6 | x6 | x6 | x6 | x6 | x6 | x6 | x6 | x6 | x6 | x6 | x6 | %37
 x6 | x6 | x6 | x6 | x6 | x6 | x6 | x6 | x6 | x6 | x6 | x6 | x6 | x6 | [C,G,]6 | [D,A,]6 | x6 | %54
 x6 | x6 | x6 | x6 | x6 | x6 | x6 | x6 | x6 | x6 | x6 | x6 | x6 | x6 | x6 | x6 | x6 | x6 | x6 | %73
 x6 | x6 | x6 | x6 | x6 | x6 | x6 | x6 | x6 |] %82

